ncols 32
nrows 32
xllcorner 0
yllcorner 0
cellsize 100
NODATA_value -9999
382.5 378.5 353.3 350.3 355.1 343.7 330.8 318.5 308.7 294.4 282.1 269.5 250.5 225.4 193.9 173.5 117.8 64.4 19.4 1.1 0.0 0.0 0.0 0.0 0.0 0.0 0.0 0.0 0.0 0.0 0.0 0.0
394.9 375.0 366.2 369.1 359.6 347.1 336.0 325.3 315.2 301.3 288.1 274.5 256.0 235.0 204.3 172.3 125.2 65.4 26.4 5.7 0.0 0.0 0.0 0.0 0.0 0.0 0.0 0.0 0.0 0.0 0.0 0.0
397.8 382.5 385.1 376.0 363.1 351.6 341.6 328.4 319.8 306.4 291.5 276.4 245.1 229.9 214.6 170.1 139.0 81.0 38.9 15.9 0.2 0.0 0.0 0.0 0.0 0.0 0.0 0.0 0.0 0.0 0.0 0.0
407.8 401.6 386.8 381.3 365.5 351.6 339.5 323.3 300.0 293.5 278.9 275.5 257.4 242.0 216.5 180.6 143.3 86.4 53.2 25.0 6.7 0.3 0.0 0.0 0.0 0.0 0.0 0.0 0.0 0.0 0.0 0.0
418.5 409.3 391.5 377.6 366.4 353.4 335.3 324.2 301.2 300.4 278.5 280.9 267.2 254.2 227.5 201.8 150.0 107.2 64.2 33.0 11.5 2.0 0.0 0.0 0.0 0.0 0.0 0.0 0.0 0.0 0.0 0.0
434.3 407.6 400.7 383.0 364.7 360.3 338.1 319.2 293.7 284.9 292.1 280.3 271.4 228.6 204.2 193.1 157.2 120.5 70.9 40.3 17.0 4.2 1.0 0.0 0.0 0.0 0.0 0.0 0.0 0.0 0.0 0.0
457.7 419.7 405.9 401.0 386.9 372.7 372.7 333.5 299.9 298.0 295.8 257.1 244.3 222.3 212.2 183.1 149.8 126.2 75.3 50.8 31.1 12.6 5.5 3.3 0.4 0.0 0.0 0.0 0.0 0.0 0.0 0.0
481.4 449.3 422.8 410.9 405.6 386.5 383.5 365.1 348.3 333.0 304.8 270.1 266.3 252.4 239.8 216.1 170.1 134.7 82.1 66.2 50.4 23.3 13.7 12.9 1.2 0.2 0.1 0.0 0.0 0.0 0.0 0.0
499.7 476.0 450.3 431.2 418.3 409.2 387.8 386.1 377.3 348.1 322.3 304.9 286.7 285.3 260.8 229.8 198.1 158.3 108.3 68.8 57.2 30.5 24.4 22.9 4.2 1.3 0.3 0.0 0.0 0.0 0.0 0.0
520.7 495.1 470.8 443.1 433.9 432.5 410.5 399.7 391.2 366.8 341.6 327.6 314.1 288.7 263.5 227.8 212.5 206.0 97.7 87.8 75.1 48.9 36.2 33.0 17.7 6.3 4.2 0.0 0.0 0.0 0.0 0.0
546.3 521.2 496.1 469.8 445.8 447.5 432.9 416.3 413.5 385.3 373.7 355.0 337.6 285.1 278.1 231.6 204.1 188.5 119.9 131.9 92.5 67.0 51.0 49.8 38.4 23.0 10.4 3.0 1.1 0.0 0.0 0.0
574.4 556.3 540.5 515.1 482.6 464.7 455.8 431.2 428.3 415.2 403.4 399.0 377.4 338.4 310.4 265.5 239.2 210.3 209.9 175.9 109.9 99.3 75.9 73.0 59.2 33.2 13.9 3.7 3.9 0.6 0.0 0.0
606.8 583.6 566.9 558.9 544.1 518.7 489.8 472.8 461.8 452.8 433.9 414.4 393.6 361.9 340.2 293.7 284.1 254.3 253.8 188.1 159.6 126.9 95.1 97.7 84.5 49.2 18.7 6.9 6.9 0.7 0.2 0.0
639.7 624.7 593.7 589.9 578.3 566.7 525.8 497.3 496.1 487.6 459.5 439.1 418.1 379.1 345.7 310.3 309.0 290.6 271.6 206.2 187.1 138.8 111.8 114.3 123.0 83.5 29.9 12.2 10.4 22.1 0.9 0.0
648.8 648.7 644.7 629.3 610.6 584.8 544.8 531.6 531.7 510.9 482.9 464.7 437.0 393.4 359.4 318.5 312.1 303.8 276.5 268.1 236.9 177.3 134.5 142.3 172.8 100.5 36.2 23.0 6.7 14.3 1.8 1.3
667.0 644.7 671.8 658.8 629.2 593.8 574.9 574.2 558.4 533.6 502.8 481.8 443.5 402.3 380.0 345.4 322.7 314.8 296.1 295.4 230.9 167.2 157.5 172.5 170.5 81.5 48.3 33.3 4.0 0.9 0.0 1.2
705.7 654.1 654.4 666.0 639.6 615.2 606.2 603.7 582.4 554.7 527.1 500.2 451.8 425.9 398.5 383.4 353.5 339.6 311.0 265.2 226.2 164.2 175.8 207.4 180.9 126.6 75.6 41.4 13.4 1.5 0.0 0.3
726.6 690.2 622.9 617.0 607.8 631.9 656.8 636.9 603.0 575.7 549.5 514.3 482.7 447.6 423.8 419.0 382.7 357.5 335.2 318.9 277.1 227.6 215.1 249.7 229.3 191.0 92.2 59.5 38.5 7.3 0.2 0.0
745.2 680.8 642.6 601.0 580.5 618.1 690.2 667.9 633.7 595.8 565.0 530.0 496.6 471.2 447.8 443.5 404.5 375.1 359.0 347.3 322.4 259.7 231.2 276.5 253.2 193.9 109.1 99.2 87.0 49.9 6.7 0.0
783.0 700.1 664.9 641.8 621.8 591.2 636.5 692.2 648.1 613.8 576.4 543.5 510.2 486.1 473.3 452.1 419.3 381.8 369.7 354.6 335.8 295.0 241.7 299.5 253.1 184.4 141.0 117.0 119.1 100.6 54.2 7.6
653.1 674.0 729.0 769.0 691.1 630.8 613.7 693.0 687.8 638.1 595.3 560.7 525.6 501.7 486.2 453.8 432.5 395.1 372.6 360.0 348.3 331.3 269.1 309.2 267.5 185.8 153.4 131.0 135.0 122.0 101.2 63.8
692.7 699.8 795.8 836.8 785.5 675.2 650.7 611.0 653.5 689.9 647.9 594.4 544.0 518.7 501.5 473.3 447.0 414.9 377.7 364.0 355.2 340.2 282.0 310.6 264.5 191.2 192.8 153.0 147.1 134.4 125.3 107.4
734.9 713.7 768.3 868.2 825.1 765.5 685.4 637.3 617.4 687.0 661.4 620.7 577.8 539.8 513.0 491.1 457.9 426.5 385.0 365.3 358.1 343.1 307.4 296.5 244.4 194.0 193.2 163.3 159.7 157.4 142.1 125.6
710.5 693.8 694.0 803.1 873.2 784.7 713.2 649.3 598.4 651.8 658.0 602.2 593.5 566.5 530.9 503.8 473.9 438.1 400.1 364.3 351.0 342.6 315.5 296.0 247.1 207.9 188.7 179.3 170.8 162.7 152.4 137.0
720.0 698.5 675.1 672.0 757.4 836.5 737.4 624.9 596.0 624.3 599.3 556.9 555.6 588.6 553.1 515.0 487.7 451.9 406.0 364.9 344.6 340.0 319.1 289.0 234.4 213.0 207.4 196.0 178.9 168.7 156.4 144.5
720.8 710.2 705.1 687.2 646.2 694.7 767.9 668.1 561.7 568.4 547.1 501.1 485.2 522.8 537.9 515.4 485.4 450.0 404.5 366.5 338.1 326.6 313.6 293.8 225.4 230.2 219.5 202.3 189.7 173.8 161.6 140.3
719.7 703.8 689.7 722.2 743.9 770.8 720.5 665.9 569.9 509.4 494.6 466.8 482.2 437.8 425.8 468.1 463.8 438.4 394.8 363.1 332.8 316.2 319.3 285.4 243.3 240.4 222.0 205.5 196.3 183.3 166.7 148.1
695.5 707.5 689.3 734.0 809.7 794.2 767.6 727.6 624.2 522.2 467.3 436.4 422.7 417.4 423.5 402.6 389.7 394.3 362.7 341.1 321.2 299.8 311.9 282.9 253.5 239.7 222.3 206.1 195.2 181.5 166.7 154.4
687.0 671.6 687.6 717.5 804.5 857.5 994.8 820.2 656.0 504.9 457.1 472.7 472.4 503.8 491.8 477.3 443.2 410.9 372.7 352.6 324.7 302.0 281.4 276.2 257.8 237.4 221.8 205.3 193.2 180.7 167.1 150.8
699.8 654.6 663.4 718.9 928.2 1005.5 1042.8 862.0 661.2 502.6 468.5 497.5 525.0 539.7 508.7 472.8 444.6 410.4 372.6 342.9 311.7 295.7 275.4 261.9 245.8 231.8 219.3 206.7 193.3 179.6 167.0 153.1
737.1 658.7 644.3 705.1 855.2 846.8 998.3 860.4 662.1 531.5 493.6 524.8 570.4 536.2 493.6 454.3 421.9 394.4 356.4 330.0 303.8 297.3 248.5 251.8 239.0 226.0 214.7 202.6 188.3 177.2 165.8 152.9
753.4 671.2 633.6 680.2 833.1 846.3 849.7 753.8 635.3 545.4 536.9 553.0 574.6 526.9 483.8 442.6 404.3 375.8 338.9 318.1 309.9 286.1 217.5 216.9 223.7 216.5 207.3 197.3 186.3 177.4 164.8 153.6
