ncols 32
nrows 32
xllcorner 0
yllcorner 0
cellsize 100
NODATA_value -9999
0.10 0.04 0.32 0.38 0.01 0.02 0.03 0.03 0.02 0.02 0.06 0.18 0.05 0.06 0.21 0.44 0.36 0.25 0.18 0.16 0.00 0.00 0.00 0.00 0.00 0.00 0.00 0.00 0.00 0.00 0.00 0.00
0.04 0.28 0.47 0.14 0.03 0.04 0.01 0.01 0.05 0.02 0.08 0.06 0.04 0.07 0.24 0.39 0.32 0.27 0.16 0.21 0.00 0.00 0.00 0.00 0.00 0.00 0.00 0.00 0.00 0.00 0.00 0.00
0.19 0.47 0.02 0.01 0.09 0.02 0.04 0.04 0.04 0.05 0.02 0.04 0.22 0.33 0.31 0.44 0.37 0.39 0.35 0.31 0.03 0.00 0.00 0.00 0.00 0.00 0.00 0.00 0.00 0.00 0.00 0.00
0.27 0.03 0.14 0.02 0.02 0.07 0.05 0.06 0.26 0.21 0.25 0.05 0.22 0.28 0.35 0.50 0.33 0.31 0.48 0.45 0.22 0.03 0.00 0.00 0.00 0.00 0.00 0.00 0.00 0.00 0.00 0.00
0.08 0.00 0.10 0.18 0.11 0.08 0.10 0.15 0.39 0.08 0.43 0.15 0.11 0.18 0.39 0.40 0.34 0.47 0.56 0.61 0.39 0.20 0.00 0.00 0.00 0.00 0.00 0.00 0.00 0.00 0.00 0.00
0.12 0.13 0.09 0.41 0.50 0.43 0.33 0.42 0.42 0.65 0.60 0.50 0.64 0.59 0.55 0.56 0.43 0.45 0.93 0.68 0.46 0.26 0.03 0.00 0.00 0.00 0.00 0.00 0.00 0.00 0.00 0.00
0.03 0.22 0.42 0.38 0.32 0.57 0.36 0.92 1.06 0.95 0.67 1.01 0.68 0.58 0.76 0.84 0.84 0.74 0.89 0.75 0.54 0.52 0.27 0.16 0.06 0.00 0.00 0.00 0.00 0.00 0.00 0.00
0.01 0.22 0.51 0.82 0.28 0.50 0.20 0.37 0.69 1.02 0.77 0.83 0.94 0.79 0.81 0.89 0.85 0.99 0.94 0.75 0.85 0.57 0.44 0.41 0.18 0.00 0.00 0.00 0.00 0.00 0.00 0.00
0.03 0.13 0.35 0.68 0.90 0.46 0.54 0.29 0.48 0.72 0.52 0.79 0.69 0.70 0.78 0.94 0.91 1.03 0.99 0.74 0.69 0.56 0.33 0.64 0.30 0.02 0.03 0.00 0.00 0.00 0.00 0.00
0.15 0.11 0.22 0.62 0.98 0.61 0.62 0.39 0.49 0.64 0.46 0.49 0.70 0.70 0.69 0.92 1.03 1.24 0.97 0.79 0.72 0.72 0.43 0.61 0.52 0.25 0.23 0.01 0.00 0.00 0.00 0.00
0.38 0.28 0.37 0.43 0.92 0.65 0.57 0.51 0.30 0.56 0.57 0.62 0.89 0.96 1.02 0.61 0.93 1.32 0.67 0.86 0.73 0.79 0.43 0.45 0.62 0.44 0.36 0.16 0.05 0.00 0.00 0.00
0.55 0.92 0.68 0.59 0.68 1.09 0.93 0.95 0.54 0.44 0.47 0.50 0.33 0.94 1.05 0.65 0.80 0.89 0.99 0.99 0.65 0.68 0.51 0.42 0.49 0.38 0.23 0.18 0.13 0.05 0.00 0.00
0.27 0.70 1.14 1.32 0.91 0.90 0.86 0.78 0.74 0.25 0.33 0.35 0.36 0.40 0.66 0.73 0.95 1.11 0.85 0.92 0.86 0.80 0.47 0.41 0.46 0.31 0.27 0.13 0.22 0.07 0.01 0.00
0.37 0.31 0.59 0.85 0.63 0.55 0.70 0.73 0.51 0.20 0.23 0.28 0.35 0.30 0.61 1.07 0.80 1.06 0.91 1.26 1.00 0.71 0.45 0.42 0.46 0.48 0.38 0.32 0.35 0.41 0.11 0.00
0.35 0.22 0.21 0.30 0.32 0.43 0.62 0.66 0.46 0.19 0.11 0.15 0.19 0.34 0.51 0.84 0.78 0.51 0.84 1.05 0.94 0.95 0.47 0.59 0.57 0.78 0.65 0.50 0.35 0.64 0.25 0.00
0.27 0.30 0.20 0.02 0.14 0.31 0.56 0.55 0.37 0.38 0.17 0.12 0.31 0.23 0.38 0.51 0.63 0.56 0.78 0.62 1.19 1.04 0.50 0.65 0.57 0.81 0.45 0.61 0.27 0.13 0.05 0.03
0.72 0.27 0.79 0.41 0.48 0.72 0.30 0.26 0.54 0.55 0.31 0.14 0.45 0.33 0.30 0.27 0.23 0.57 0.66 0.93 1.02 0.93 0.65 0.72 0.89 0.74 0.53 0.53 0.36 0.13 0.00 0.00
0.36 1.01 0.52 1.30 0.80 0.90 0.82 0.24 0.64 0.71 0.38 0.18 0.33 0.40 0.23 0.27 0.29 0.26 0.50 0.88 1.11 1.00 0.82 0.74 1.06 1.20 0.77 0.47 0.46 0.18 0.01 0.00
1.01 0.71 1.03 0.09 0.07 1.42 0.75 0.11 0.26 0.46 0.31 0.39 0.33 0.22 0.24 0.22 0.41 0.11 0.10 0.10 0.39 0.80 0.96 0.83 1.36 1.07 0.57 0.48 0.38 0.43 0.23 0.00
2.23 1.69 0.89 0.26 0.56 0.19 1.64 1.03 0.75 0.37 0.22 0.46 0.63 0.42 0.29 0.39 0.44 0.41 0.06 0.01 0.13 0.56 0.81 0.59 1.38 1.17 0.78 0.24 0.29 0.39 0.56 0.24
1.07 0.93 1.67 2.30 0.81 0.29 1.14 1.86 0.92 0.95 0.38 0.26 0.72 0.71 0.48 0.51 0.59 0.49 0.18 0.02 0.05 0.27 0.89 0.47 1.46 1.17 0.37 0.32 0.26 0.39 0.38 0.63
1.10 0.49 1.97 2.67 1.99 0.44 0.54 1.34 1.14 0.94 0.69 0.55 0.39 0.77 0.75 0.54 0.61 0.38 0.37 0.10 0.01 0.13 0.71 0.65 1.02 0.53 0.67 0.57 0.34 0.52 0.43 0.35
1.09 0.86 2.15 2.38 1.97 1.24 0.69 0.65 0.48 0.49 0.54 0.71 0.44 0.25 0.65 0.64 0.55 0.35 0.46 0.19 0.06 0.14 0.43 0.55 0.88 0.34 0.68 0.49 0.46 0.59 0.34 0.12
0.98 0.77 0.55 2.78 2.58 2.44 1.35 0.66 0.51 0.76 0.42 0.56 0.43 0.35 0.31 0.61 0.74 0.39 0.29 0.29 0.16 0.09 0.33 0.77 0.80 0.41 0.45 0.45 0.58 0.39 0.18 0.11
0.94 0.73 0.79 1.48 3.85 3.05 3.09 0.96 0.60 1.04 0.82 0.63 0.68 0.47 0.33 0.35 0.66 0.50 0.28 0.33 0.24 0.15 0.27 0.69 0.64 0.18 0.29 0.30 0.46 0.32 0.15 0.13
0.31 0.65 1.38 1.49 1.13 3.75 3.20 1.86 0.67 1.45 0.73 0.37 0.34 1.10 0.49 0.24 0.40 0.53 0.37 0.22 0.24 0.21 0.29 0.45 0.53 0.33 0.23 0.13 0.34 0.33 0.27 0.42
0.50 0.15 0.81 2.41 2.70 3.01 4.03 3.62 1.52 1.25 1.44 0.47 0.57 0.43 1.17 0.73 0.41 0.48 0.34 0.21 0.25 0.23 0.30 0.41 0.23 0.16 0.17 0.12 0.23 0.42 0.49 0.59
0.75 0.47 0.42 2.04 3.16 5.57 5.18 4.60 2.35 1.35 1.11 0.44 0.68 0.60 0.50 0.75 0.89 0.70 0.56 0.39 0.33 0.27 0.38 0.35 0.07 0.14 0.19 0.30 0.21 0.37 0.54 0.61
0.03 0.72 0.61 1.09 1.62 3.64 5.07 4.84 2.44 0.85 0.36 0.82 0.34 0.54 0.69 1.20 0.85 0.88 0.59 0.22 0.26 0.25 0.44 0.16 0.04 0.16 0.19 0.22 0.20 0.30 0.52 0.68
0.11 0.39 1.28 0.46 3.48 4.91 3.35 4.78 3.23 0.70 0.64 0.90 0.36 0.45 0.61 0.52 0.36 0.47 0.37 0.21 0.16 0.24 0.11 0.24 0.13 0.08 0.12 0.08 0.16 0.24 0.37 0.50
0.69 0.11 0.87 0.46 5.18 5.70 3.26 3.71 3.33 1.04 0.58 0.55 0.41 0.42 0.55 0.46 0.31 0.34 0.23 0.18 0.15 0.25 0.34 0.11 0.08 0.18 0.18 0.13 0.21 0.30 0.25 0.35
1.26 0.25 0.06 0.70 3.82 6.53 5.46 4.85 2.53 0.87 1.07 0.48 0.35 0.48 0.54 0.44 0.16 0.35 0.22 0.16 0.15 0.19 0.45 0.30 0.14 0.02 0.06 0.14 0.32 0.24 0.25 0.24
