ncols 32
nrows 32
xllcorner 0
yllcorner 0
cellsize 100
NODATA_value -9999
101 101 32 3 3 3 3 3 5 5 5 7 7 7 5 5 5 5 5 7 7 7 7 7 7 32 32 32 32 31 31 31
101 101 7 3 3 3 3 3 3 5 5 5 5 5 3 3 5 5 5 7 7 5 7 7 5 7 32 32 32 32 31 31
101 101 5 3 3 3 3 3 5 5 5 5 3 3 3 3 3 5 5 7 7 7 7 7 5 7 32 32 32 32 31 31
101 101 5 3 3 3 3 3 5 5 3 5 3 3 3 3 5 5 7 7 7 7 7 7 7 7 32 31 32 32 31 101
101 31 5 3 3 3 3 3 3 3 5 5 5 3 3 3 5 5 7 5 7 7 7 32 32 32 32 32 32 32 31 101
101 7 3 3 3 3 3 3 3 3 5 5 7 7 5 3 3 5 7 5 5 7 7 32 32 32 32 31 31 31 31 31
32 3 3 3 3 3 3 3 3 3 5 7 7 7 7 5 5 7 7 7 5 5 7 32 32 32 31 31 31 31 31 31
32 3 3 3 3 3 3 5 5 5 7 7 7 7 7 7 5 5 7 7 5 5 7 32 32 32 31 31 31 31 31 31
101 7 3 3 3 3 5 5 5 5 7 7 7 7 32 32 7 5 7 7 5 5 5 7 32 31 31 31 31 31 31 31
101 101 7 3 3 3 5 5 5 5 5 7 32 7 32 32 7 5 5 5 5 5 5 7 7 32 32 32 31 31 31 31
101 101 101 7 3 3 3 3 5 5 5 32 32 7 7 32 5 3 5 5 3 3 5 5 7 7 32 32 31 31 31 31
101 101 101 31 3 3 3 5 5 5 5 32 32 7 5 7 7 5 3 5 3 3 5 5 7 7 32 32 32 32 31 31
101 101 101 101 5 3 3 3 5 5 5 32 32 5 3 3 7 7 5 3 3 3 3 5 5 5 7 32 31 31 31 31
101 101 101 101 3 3 3 3 3 5 5 7 7 5 3 3 5 7 5 3 3 3 5 5 5 5 5 32 32 31 31 31
101 101 101 101 5 3 3 5 5 5 5 7 7 5 5 5 5 5 7 5 3 3 3 5 5 5 7 32 32 31 31 31
101 101 101 101 7 3 3 5 5 7 7 7 7 5 5 5 5 7 7 5 3 3 3 3 5 7 7 7 32 32 31 32
101 101 101 101 32 3 3 5 5 5 7 7 7 7 5 5 5 5 7 7 5 3 3 5 5 7 7 7 32 32 32 32
101 101 101 101 101 7 3 3 5 5 5 7 7 7 7 5 5 7 7 7 5 5 3 5 5 7 5 7 32 32 32 31
101 101 101 101 101 101 7 5 5 5 5 5 7 7 7 5 7 7 32 32 7 5 3 3 5 7 7 7 7 32 32 32
101 101 101 101 101 101 101 32 5 5 7 5 5 7 7 5 7 7 32 32 7 5 3 3 3 5 5 5 7 7 7 32
101 101 101 101 101 101 101 101 32 5 7 7 7 7 7 7 7 7 7 7 7 7 5 3 3 5 5 7 7 7 7 32
101 101 101 101 101 101 101 101 101 7 5 7 32 32 32 32 7 5 7 7 7 7 7 5 3 3 5 32 32 7 7 32
101 101 101 101 101 101 101 101 101 32 5 7 31 7 32 32 7 5 7 5 7 32 7 7 5 3 5 7 7 32 32 32
101 101 101 101 101 101 101 101 101 101 31 32 31 7 7 7 32 7 7 5 5 7 32 32 7 5 3 5 7 7 32 32
101 101 101 101 101 101 101 101 101 101 101 31 31 31 7 32 32 32 7 5 7 5 7 32 7 5 5 5 5 7 32 7
101 101 101 101 101 101 101 101 101 101 101 31 7 32 32 7 7 32 32 7 5 5 7 7 32 7 5 5 5 7 7 7
101 101 101 101 101 101 101 101 101 101 101 101 5 5 32 32 7 7 32 7 7 7 7 7 32 32 7 5 5 5 7 7
101 101 101 101 101 101 101 101 101 101 101 101 7 3 5 7 7 7 7 32 7 7 7 7 7 32 32 7 5 5 5 7
101 101 101 101 101 101 101 101 101 101 101 101 31 7 5 5 5 7 7 32 32 7 5 5 5 7 32 32 7 7 5 5
101 101 101 101 101 101 101 101 101 101 101 101 101 101 31 32 7 7 32 32 32 32 7 5 5 7 7 32 32 32 7 5
101 101 101 101 101 101 101 101 101 101 101 101 101 101 101 31 7 7 7 32 32 32 7 7 7 5 7 32 7 7 7 5
101 101 101 101 101 101 101 101 101 101 101 101 101 101 101 32 7 7 7 32 32 31 32 32 32 7 7 7 7 7 7 7
