ncols 32
nrows 32
xllcorner 0
yllcorner 0
cellsize 100
NODATA_value -9999
0.00 0.00 1.63 6.54 6.60 7.15 8.93 10.15 9.41 5.54 5.76 7.46 3.39 10.44 6.22 3.41 2.04 2.68 0.61 1.46 1.97 1.85 1.26 0.93 3.94 3.32 2.72 1.33 2.02 1.51 2.28 3.02
0.00 0.00 3.08 7.50 10.20 10.80 11.77 11.08 12.35 9.04 7.99 8.81 7.22 7.59 2.28 3.68 1.76 2.49 1.76 1.89 5.24 5.13 2.73 1.58 4.17 7.76 4.72 3.53 2.34 3.16 4.04 5.51
0.00 0.06 4.73 7.78 10.03 9.71 10.66 10.14 10.20 9.43 10.76 8.01 10.60 7.17 6.17 6.92 2.91 1.02 3.93 1.64 1.71 4.01 3.90 4.25 3.90 6.49 4.36 3.52 2.31 3.19 5.15 3.20
0.00 0.01 2.84 8.05 9.41 9.81 10.01 10.11 12.21 10.59 7.27 8.94 8.65 10.36 7.21 7.07 4.09 3.14 1.29 3.24 2.98 3.81 3.42 2.84 3.00 4.01 3.57 1.80 3.48 4.94 4.60 2.55
0.00 0.03 2.81 6.57 9.43 10.14 10.84 11.26 11.89 8.97 6.78 8.80 6.29 8.36 6.17 5.22 4.98 3.28 3.45 3.69 3.21 2.46 1.84 1.90 1.25 2.50 2.08 3.01 3.30 7.94 1.47 0.10
0.00 1.13 3.73 7.11 9.25 10.27 8.02 9.02 8.82 6.19 7.43 7.95 2.96 2.20 3.12 5.21 4.90 5.56 2.55 2.59 3.89 2.89 3.84 3.17 3.30 3.97 2.67 3.98 3.83 3.57 4.15 3.31
1.08 3.66 4.65 6.80 7.43 9.24 7.72 5.75 6.68 8.46 9.10 4.61 0.80 0.82 2.73 3.63 3.59 6.00 5.03 3.34 2.59 3.97 4.70 3.45 1.73 2.68 3.93 1.73 1.97 3.06 4.46 1.55
2.11 7.10 7.63 7.65 7.91 8.06 9.70 5.50 5.69 6.11 2.91 1.16 0.77 1.11 2.74 3.87 5.57 6.48 4.73 3.48 2.40 4.48 4.20 2.21 2.93 4.66 3.98 1.33 5.12 3.67 6.37 0.93
0.78 6.56 6.86 6.80 7.31 8.65 6.34 7.18 7.92 8.28 2.49 1.17 0.77 1.19 2.45 4.18 6.38 7.20 5.12 1.85 5.47 6.75 5.85 4.82 0.28 1.00 1.98 3.33 3.10 7.46 3.22 4.46
0.00 1.12 5.76 3.97 7.05 7.90 5.77 6.68 5.99 10.30 7.04 1.48 0.73 0.02 1.71 4.15 6.08 4.92 6.38 8.69 7.38 9.28 7.81 2.88 4.79 2.98 4.12 6.28 1.70 6.08 4.24 3.15
0.00 0.00 0.62 3.79 6.38 7.73 8.21 7.65 10.14 9.24 9.40 1.76 0.64 0.08 0.21 3.31 5.79 5.18 9.77 7.97 5.66 6.71 6.89 3.77 5.79 6.05 4.77 6.94 5.38 3.29 3.28 2.66
0.00 0.00 0.00 1.25 4.74 6.72 8.89 4.19 9.70 10.13 9.83 2.86 1.15 0.05 0.00 0.78 4.71 6.10 7.41 7.94 7.06 7.48 6.49 4.14 1.73 4.48 5.54 3.97 4.29 7.19 3.74 5.12
0.00 0.00 0.00 0.00 3.97 5.43 6.41 7.05 8.90 8.54 9.31 2.87 1.03 0.04 0.00 0.01 0.94 4.32 7.06 4.72 4.77 8.54 7.99 6.22 3.73 6.90 4.62 2.88 3.94 6.34 2.76 2.57
0.00 0.00 0.00 0.00 2.32 4.71 4.55 5.73 9.52 7.62 9.46 3.70 1.85 0.02 0.00 0.00 0.09 1.67 4.91 4.95 5.87 7.39 7.06 5.58 5.38 3.95 8.24 3.03 4.80 5.15 4.30 1.93
0.00 0.00 0.00 0.02 2.32 3.34 4.88 5.19 6.78 5.80 8.95 4.01 3.12 0.11 0.00 0.24 0.02 0.59 3.09 4.50 4.16 5.68 6.44 5.86 6.23 3.92 8.41 5.84 5.53 3.77 2.70 1.10
0.00 0.00 0.00 0.00 2.28 3.47 4.90 4.33 6.43 5.45 8.38 5.79 3.93 0.07 0.00 1.44 0.33 0.07 1.61 2.59 2.99 5.87 7.85 9.24 8.30 4.28 2.72 6.20 4.11 6.20 3.27 2.82
0.00 0.00 0.00 0.00 1.41 5.48 5.36 6.21 5.16 1.39 4.85 4.33 4.76 1.76 0.25 0.00 0.00 0.00 0.58 2.30 3.46 6.18 8.77 7.54 6.97 5.07 2.63 5.11 3.01 6.63 3.75 0.81
0.00 0.00 0.00 0.00 0.43 5.71 4.54 4.81 5.50 5.55 5.26 3.53 5.38 4.79 0.98 0.04 0.00 0.00 0.12 1.60 3.47 2.86 4.80 5.45 4.43 8.41 7.29 7.15 3.37 7.90 2.36 1.92
0.00 0.00 0.00 0.00 0.00 0.63 3.52 5.05 4.29 4.31 6.83 4.21 3.76 4.88 1.33 0.15 0.00 0.00 0.03 1.02 2.45 2.85 3.89 4.73 5.96 6.59 6.88 7.80 7.11 4.82 3.77 4.64
0.00 0.00 0.00 0.00 0.00 0.00 1.04 4.01 4.48 2.32 3.12 5.48 4.38 4.36 2.63 0.00 0.00 0.00 0.03 0.44 1.77 3.15 2.94 3.21 5.33 7.97 8.67 8.02 9.29 6.44 5.93 6.21
0.00 0.00 0.00 0.00 0.00 0.00 0.00 0.31 3.21 1.70 1.76 5.70 3.81 5.22 3.63 0.00 0.00 0.00 0.00 0.18 0.82 2.04 4.00 4.03 6.09 6.79 5.72 10.12 9.00 8.03 8.28 4.83
0.00 0.00 0.00 0.00 0.00 0.00 0.00 0.00 0.44 2.06 1.61 2.89 1.33 3.36 0.97 0.14 0.02 0.00 0.00 0.06 0.64 2.11 3.54 3.13 5.88 5.61 7.27 6.65 8.74 9.99 5.02 4.54
0.00 0.00 0.00 0.00 0.00 0.00 0.00 0.00 0.09 2.67 3.42 2.32 0.03 2.04 0.33 0.42 0.16 0.00 0.00 0.00 0.47 2.15 3.76 3.26 6.67 5.34 5.40 6.31 7.06 8.93 10.04 4.23
0.00 0.00 0.00 0.00 0.00 0.00 0.00 0.00 0.15 0.48 4.26 3.29 0.76 3.09 2.22 3.39 0.24 0.00 0.00 0.00 0.14 1.10 2.75 2.68 3.44 7.38 6.51 8.88 12.16 9.59 9.16 6.96
0.00 0.00 0.00 0.00 0.00 0.00 0.00 0.00 0.00 0.00 0.00 1.29 0.54 2.19 3.35 3.57 2.42 0.26 0.00 0.00 0.00 0.16 1.25 1.82 4.96 4.19 6.39 5.93 8.44 9.44 8.60 8.86
0.00 0.00 0.00 0.00 0.00 0.00 0.00 0.00 0.00 0.00 0.00 1.14 1.28 0.07 2.61 2.35 3.72 3.46 0.82 0.00 0.00 0.04 0.24 0.88 2.71 6.48 6.80 10.86 8.41 7.38 9.05 9.55
0.00 0.00 0.00 0.00 0.00 0.00 0.00 0.00 0.00 0.00 0.00 0.83 3.83 0.65 0.16 5.24 7.81 5.24 5.43 1.43 0.00 0.00 0.10 0.41 1.36 3.72 4.32 6.38 7.86 6.95 7.40 9.76
0.00 0.00 0.00 0.00 0.00 0.00 0.00 0.00 0.00 0.00 0.00 0.00 2.80 4.80 1.48 1.43 5.81 3.46 5.87 2.68 0.02 0.00 0.00 0.06 0.24 1.39 2.79 4.95 5.73 8.16 9.40 7.57
0.00 0.00 0.00 0.00 0.00 0.00 0.00 0.00 0.00 0.00 0.00 0.00 2.09 5.20 5.49 4.88 3.28 5.17 4.04 3.77 0.24 0.00 0.00 0.00 0.00 0.22 1.23 3.02 4.52 7.07 9.85 5.01
0.00 0.00 0.00 0.00 0.00 0.00 0.00 0.00 0.00 0.00 0.00 0.00 0.03 2.84 3.04 4.48 4.22 3.13 5.10 3.90 1.44 0.10 0.00 0.00 0.00 0.00 0.08 1.13 3.66 5.51 7.57 8.00
0.00 0.00 0.00 0.00 0.00 0.00 0.00 0.00 0.00 0.00 0.00 0.00 0.00 0.00 0.03 0.44 2.25 2.04 2.34 6.02 3.44 1.72 0.04 0.00 0.00 0.00 0.00 0.23 0.81 3.00 6.79 10.61
0.00 0.00 0.00 0.00 0.00 0.00 0.00 0.00 0.00 0.00 0.00 0.00 0.00 0.00 0.00 0.11 0.50 4.85 4.14 4.29 4.92 3.33 1.19 0.00 0.00 0.00 0.00 0.00 0.00 1.27 5.04 6.86
