ncols 32
nrows 32
xllcorner 0
yllcorner 0
cellsize 100.0
NODATA_value -9999
0.0001 0.0002 0.0001 0.0000 0.0000 0.0000 0.0000 0.0000 0.0000 0.0000 0.0000 0.0000 0.0000 0.0000 0.0000 0.0000 0.0000 0.0000 0.0000 0.0000 0.0000 0.0000 0.0000 0.0000 0.0000 0.0000 0.0000 0.0000 0.0000 0.0000 0.0000 0.0000
0.0040 0.0067 0.0040 0.0009 0.0001 0.0000 0.0000 0.0000 0.0000 0.0000 0.0000 0.0001 0.0002 0.0001 0.0000 0.0000 0.0000 0.0000 0.0000 0.0000 0.0000 0.0000 0.0000 0.0000 0.0000 0.0000 0.0000 0.0000 0.0000 0.0000 0.0000 0.0000
0.0493 0.0812 0.0493 0.0110 0.0009 0.0000 0.0000 0.0000 0.0000 0.0001 0.0009 0.0040 0.0067 0.0040 0.0009 0.0001 0.0000 0.0000 0.0000 0.0000 0.0000 0.0002 0.0003 0.0002 0.0000 0.0000 0.0000 0.0000 0.0000 0.0000 0.0000 0.0000
0.2207 0.3639 0.2207 0.0493 0.0040 0.0001 0.0000 0.0000 0.0000 0.0009 0.0110 0.0493 0.0812 0.0493 0.0110 0.0009 0.0000 0.0000 0.0000 0.0001 0.0015 0.0067 0.0111 0.0067 0.0015 0.0001 0.0000 0.0000 0.0000 0.0000 0.0000 0.0000
0.3639 0.6000 0.3639 0.0812 0.0067 0.0002 0.0000 0.0000 0.0001 0.0040 0.0493 0.2207 0.3639 0.2207 0.0493 0.0040 0.0001 0.0000 0.0000 0.0015 0.0183 0.0821 0.1353 0.0821 0.0183 0.0015 0.0000 0.0000 0.0000 0.0000 0.0000 0.0000
0.2207 0.3639 0.2207 0.0493 0.0040 0.0001 0.0000 0.0000 0.0002 0.0067 0.0812 0.3639 0.6000 0.3639 0.0812 0.0067 0.0002 0.0000 0.0002 0.0067 0.0821 0.3679 0.6065 0.3679 0.0821 0.0067 0.0002 0.0000 0.0000 0.0000 0.0000 0.0000
0.0493 0.0812 0.0493 0.0110 0.0009 0.0000 0.0000 0.0000 0.0001 0.0040 0.0493 0.2207 0.3639 0.2207 0.0493 0.0040 0.0001 0.0000 0.0003 0.0111 0.1353 0.6065 1.0000 0.6065 0.1353 0.0111 0.0003 0.0000 0.0000 0.0000 0.0000 0.0000
0.0040 0.0067 0.0040 0.0009 0.0001 0.0000 0.0000 0.0000 0.0000 0.0009 0.0110 0.0493 0.0812 0.0493 0.0111 0.0010 0.0001 0.0000 0.0002 0.0067 0.0821 0.3679 0.6065 0.3679 0.0821 0.0067 0.0002 0.0000 0.0000 0.0000 0.0000 0.0000
0.0001 0.0002 0.0001 0.0000 0.0000 0.0000 0.0000 0.0000 0.0000 0.0001 0.0009 0.0040 0.0067 0.0045 0.0029 0.0034 0.0020 0.0005 0.0001 0.0015 0.0183 0.0821 0.1353 0.0821 0.0183 0.0015 0.0000 0.0000 0.0000 0.0000 0.0000 0.0000
0.0000 0.0000 0.0000 0.0000 0.0000 0.0000 0.0000 0.0000 0.0000 0.0000 0.0000 0.0001 0.0007 0.0056 0.0247 0.0406 0.0246 0.0055 0.0005 0.0001 0.0015 0.0067 0.0111 0.0067 0.0015 0.0001 0.0000 0.0000 0.0000 0.0000 0.0000 0.0000
0.0000 0.0000 0.0000 0.0000 0.0000 0.0000 0.0000 0.0000 0.0000 0.0000 0.0000 0.0001 0.0020 0.0246 0.1104 0.1820 0.1104 0.0246 0.0020 0.0001 0.0000 0.0002 0.0003 0.0002 0.0000 0.0000 0.0000 0.0000 0.0000 0.0000 0.0000 0.0000
0.0000 0.0000 0.0000 0.0000 0.0000 0.0000 0.0000 0.0000 0.0000 0.0000 0.0000 0.0001 0.0033 0.0406 0.1820 0.3000 0.1820 0.0406 0.0033 0.0001 0.0000 0.0000 0.0000 0.0000 0.0000 0.0000 0.0000 0.0000 0.0000 0.0000 0.0000 0.0000
0.0000 0.0000 0.0000 0.0000 0.0000 0.0000 0.0000 0.0000 0.0000 0.0000 0.0000 0.0001 0.0020 0.0246 0.1104 0.1820 0.1104 0.0246 0.0020 0.0001 0.0000 0.0000 0.0000 0.0000 0.0000 0.0000 0.0000 0.0000 0.0000 0.0000 0.0000 0.0000
0.0000 0.0000 0.0000 0.0000 0.0000 0.0000 0.0000 0.0000 0.0000 0.0000 0.0000 0.0000 0.0005 0.0055 0.0246 0.0406 0.0246 0.0055 0.0005 0.0000 0.0000 0.0000 0.0000 0.0000 0.0000 0.0000 0.0000 0.0000 0.0000 0.0000 0.0000 0.0000
0.0000 0.0000 0.0000 0.0000 0.0000 0.0000 0.0000 0.0000 0.0000 0.0000 0.0000 0.0000 0.0000 0.0005 0.0020 0.0033 0.0021 0.0006 0.0001 0.0000 0.0000 0.0000 0.0000 0.0000 0.0000 0.0000 0.0000 0.0000 0.0000 0.0000 0.0000 0.0000
0.0000 0.0000 0.0000 0.0000 0.0000 0.0000 0.0000 0.0000 0.0000 0.0001 0.0002 0.0001 0.0000 0.0000 0.0001 0.0006 0.0021 0.0033 0.0020 0.0005 0.0000 0.0000 0.0000 0.0000 0.0000 0.0000 0.0000 0.0000 0.0000 0.0000 0.0000 0.0000
0.0000 0.0000 0.0000 0.0000 0.0000 0.0000 0.0000 0.0001 0.0009 0.0040 0.0067 0.0040 0.0009 0.0001 0.0005 0.0055 0.0246 0.0406 0.0246 0.0055 0.0005 0.0000 0.0000 0.0000 0.0000 0.0000 0.0000 0.0000 0.0000 0.0000 0.0000 0.0000
0.0000 0.0000 0.0000 0.0000 0.0000 0.0000 0.0000 0.0009 0.0110 0.0493 0.0812 0.0493 0.0110 0.0010 0.0020 0.0246 0.1104 0.1820 0.1104 0.0246 0.0020 0.0001 0.0000 0.0000 0.0000 0.0000 0.0000 0.0000 0.0000 0.0000 0.0000 0.0000
0.0000 0.0000 0.0000 0.0000 0.0000 0.0000 0.0001 0.0040 0.0493 0.2207 0.3639 0.2207 0.0493 0.0041 0.0035 0.0406 0.1820 0.3000 0.1820 0.0406 0.0033 0.0001 0.0000 0.0000 0.0000 0.0000 0.0000 0.0000 0.0000 0.0000 0.0000 0.0000
0.0000 0.0000 0.0000 0.0000 0.0000 0.0000 0.0002 0.0067 0.0812 0.3639 0.6000 0.3639 0.0812 0.0067 0.0022 0.0246 0.1104 0.1820 0.1104 0.0246 0.0020 0.0001 0.0000 0.0000 0.0000 0.0000 0.0000 0.0000 0.0000 0.0000 0.0000 0.0000
0.0000 0.0000 0.0000 0.0000 0.0000 0.0000 0.0001 0.0040 0.0493 0.2207 0.3639 0.2207 0.0493 0.0041 0.0006 0.0055 0.0246 0.0406 0.0246 0.0055 0.0005 0.0000 0.0000 0.0000 0.0000 0.0000 0.0000 0.0000 0.0000 0.0000 0.0000 0.0000
0.0000 0.0000 0.0000 0.0000 0.0000 0.0000 0.0000 0.0009 0.0110 0.0493 0.0812 0.0493 0.0110 0.0009 0.0001 0.0005 0.0020 0.0033 0.0020 0.0005 0.0000 0.0000 0.0000 0.0000 0.0000 0.0000 0.0000 0.0000 0.0000 0.0000 0.0000 0.0000
0.0000 0.0000 0.0000 0.0000 0.0000 0.0000 0.0000 0.0001 0.0009 0.0040 0.0067 0.0040 0.0009 0.0001 0.0000 0.0000 0.0001 0.0001 0.0001 0.0000 0.0000 0.0000 0.0000 0.0000 0.0000 0.0000 0.0000 0.0000 0.0000 0.0000 0.0000 0.0000
0.0000 0.0000 0.0000 0.0000 0.0000 0.0000 0.0000 0.0000 0.0000 0.0001 0.0002 0.0001 0.0000 0.0000 0.0000 0.0000 0.0000 0.0000 0.0000 0.0000 0.0000 0.0000 0.0000 0.0000 0.0000 0.0000 0.0000 0.0000 0.0000 0.0000 0.0000 0.0000
0.0000 0.0000 0.0000 0.0000 0.0000 0.0000 0.0000 0.0000 0.0000 0.0000 0.0000 0.0000 0.0000 0.0000 0.0000 0.0000 0.0000 0.0000 0.0000 0.0000 0.0000 0.0000 0.0000 0.0000 0.0000 0.0000 0.0000 0.0000 0.0000 0.0000 0.0000 0.0000
0.0000 0.0000 0.0000 0.0000 0.0000 0.0000 0.0000 0.0000 0.0000 0.0000 0.0000 0.0000 0.0000 0.0000 0.0000 0.0000 0.0000 0.0000 0.0000 0.0000 0.0000 0.0000 0.0000 0.0000 0.0000 0.0000 0.0000 0.0000 0.0000 0.0000 0.0000 0.0000
0.0000 0.0000 0.0000 0.0000 0.0000 0.0000 0.0000 0.0000 0.0000 0.0000 0.0000 0.0000 0.0000 0.0000 0.0000 0.0000 0.0000 0.0000 0.0000 0.0000 0.0000 0.0000 0.0000 0.0000 0.0000 0.0000 0.0000 0.0000 0.0000 0.0000 0.0000 0.0000
0.0000 0.0000 0.0000 0.0000 0.0000 0.0000 0.0000 0.0000 0.0000 0.0000 0.0000 0.0000 0.0000 0.0000 0.0000 0.0000 0.0000 0.0000 0.0000 0.0000 0.0000 0.0000 0.0000 0.0000 0.0000 0.0000 0.0000 0.0000 0.0000 0.0000 0.0000 0.0000
0.0000 0.0000 0.0000 0.0000 0.0000 0.0000 0.0000 0.0000 0.0000 0.0000 0.0000 0.0000 0.0000 0.0000 0.0000 0.0000 0.0000 0.0000 0.0000 0.0000 0.0000 0.0000 0.0000 0.0000 0.0000 0.0000 0.0000 0.0000 0.0000 0.0000 0.0000 0.0000
0.0000 0.0000 0.0000 0.0000 0.0000 0.0000 0.0000 0.0000 0.0000 0.0000 0.0000 0.0000 0.0000 0.0000 0.0000 0.0000 0.0000 0.0000 0.0000 0.0000 0.0000 0.0000 0.0000 0.0000 0.0000 0.0000 0.0000 0.0000 0.0000 0.0000 0.0000 0.0000
0.0000 0.0000 0.0000 0.0000 0.0000 0.0000 0.0000 0.0000 0.0000 0.0000 0.0000 0.0000 0.0000 0.0000 0.0000 0.0000 0.0000 0.0000 0.0000 0.0000 0.0000 0.0000 0.0000 0.0000 0.0000 0.0000 0.0000 0.0000 0.0000 0.0000 0.0000 0.0000
0.0000 0.0000 0.0000 0.0000 0.0000 0.0000 0.0000 0.0000 0.0000 0.0000 0.0000 0.0000 0.0000 0.0000 0.0000 0.0000 0.0000 0.0000 0.0000 0.0000 0.0000 0.0000 0.0000 0.0000 0.0000 0.0000 0.0000 0.0000 0.0000 0.0000 0.0000 0.0000
