ncols 32
nrows 32
xllcorner 0
yllcorner 0
cellsize 100
NODATA_value -9999
0.0 0.0 91.4 432.3 961.1 757.8 958.7 1496.8 1609.9 1097.6 1374.5 1531.7 1279.3 2296.0 1645.5 1549.1 1424.9 1401.3 1338.3 1445.6 1448.0 1417.4 1368.6 1428.1 1977.7 1516.0 1701.4 1764.7 1843.7 1729.5 1725.1 1765.6
0.0 0.0 140.5 473.9 647.2 649.2 1005.4 1041.0 1512.5 1654.8 1562.0 1897.9 1317.6 1263.5 1141.2 1333.3 1272.3 1239.1 1358.7 1321.0 1469.7 1729.1 1604.0 1453.4 1912.8 1834.0 1799.9 1855.7 1817.9 1773.0 1576.5 1633.1
0.0 0.5 249.3 543.5 527.5 1080.6 1309.9 1296.2 1452.6 1761.4 1307.2 1573.6 1021.1 993.4 1131.0 1269.9 1218.8 1051.8 1226.9 1291.2 1408.9 1619.6 1771.4 1728.8 1910.1 2034.2 1610.8 1726.3 1800.2 1863.7 1846.7 1249.1
0.0 0.0 92.1 509.0 772.0 675.8 1006.5 1343.6 1748.8 1680.9 943.5 1067.0 705.6 785.7 763.8 1103.5 985.7 1044.0 1164.8 1423.1 1626.4 1762.4 1700.0 1744.4 1762.4 1837.4 1722.7 1569.7 1813.2 1613.5 1390.2 1199.7
0.0 4.5 144.3 451.2 1008.8 738.8 929.2 921.7 1051.3 912.8 944.4 854.0 426.1 511.8 596.0 1313.3 1438.8 1249.0 1558.9 1725.7 1760.5 1799.0 1741.6 1723.9 1696.6 1758.5 1778.8 1711.1 1659.2 1706.9 1225.9 1252.3
0.8 34.1 278.6 577.1 967.2 1007.0 915.4 1086.0 954.0 840.4 988.2 527.6 232.1 232.6 481.4 1058.5 1731.1 1637.2 1742.9 1812.0 1814.2 1662.6 1719.9 1622.3 1617.7 1651.0 1581.3 1367.0 1281.6 1236.8 1400.7 1559.3
77.7 324.6 242.9 443.0 722.3 1059.8 1101.0 1011.5 1174.7 1048.1 732.0 316.5 171.7 177.0 472.7 970.1 1534.0 2135.5 2025.3 1975.6 1763.3 1780.2 1579.9 1448.7 1424.0 1513.6 1526.2 1189.4 1468.8 1309.1 1587.4 1436.1
36.8 353.0 531.7 345.4 515.7 1113.8 1066.3 1232.3 1231.8 779.7 378.7 227.6 176.0 161.1 393.1 795.2 1527.4 1640.0 1603.8 1568.9 1637.2 1749.1 1636.3 1284.9 1241.7 1551.0 1485.9 1238.3 1521.8 1399.2 1442.6 1463.8
1.2 190.4 404.5 360.0 467.5 565.8 871.8 1163.6 1524.2 1315.2 549.5 266.6 159.5 110.6 341.8 693.7 1122.4 1608.5 1674.2 1423.0 1522.7 1521.6 1754.3 1687.0 1356.5 1236.2 1241.7 1341.0 1187.7 1566.4 1493.2 1644.9
0.0 0.0 138.8 357.1 465.5 569.2 751.5 1106.6 1549.7 1615.7 1090.8 286.1 157.1 82.6 149.5 529.1 993.4 1582.6 1551.1 1418.6 1279.5 1585.0 1770.3 1777.0 1947.5 1569.5 1574.5 1914.2 1244.0 1360.2 1487.9 1564.5
0.0 0.0 0.0 140.5 502.1 776.7 726.9 747.6 1125.3 1352.0 1018.3 257.7 152.9 80.3 57.6 233.6 625.4 1007.8 1297.2 1596.0 1500.7 1521.9 1746.5 1714.5 1729.1 1692.0 1649.8 1608.5 1492.1 1346.4 1452.2 1451.5
0.0 0.0 0.0 7.1 378.7 656.4 683.0 632.0 1094.1 1455.8 918.3 307.4 154.6 66.5 43.7 60.9 239.2 550.4 892.1 1325.7 1578.8 1826.7 1823.0 1656.3 1547.1 1794.6 1674.0 1560.5 1631.7 1817.6 1413.6 1380.4
0.0 0.0 0.0 0.0 137.3 466.1 622.2 778.1 1111.3 1321.5 1167.3 326.6 136.7 41.8 30.8 32.6 62.9 282.2 621.4 997.9 1218.7 1430.2 1837.9 2042.3 1918.7 2043.7 1767.1 1432.5 1581.9 1625.2 1479.7 1315.3
0.0 0.0 0.0 0.7 133.5 262.7 501.2 586.6 811.6 917.5 1172.3 445.9 169.0 29.3 21.9 22.2 30.7 105.0 465.6 653.3 944.3 1250.5 1801.3 2156.6 2152.7 1852.8 2373.6 1606.0 1802.1 1581.9 1406.8 1323.6
0.0 0.0 0.0 0.0 99.9 202.0 448.9 359.3 617.2 843.0 1008.9 620.9 246.1 26.3 16.4 82.4 23.6 45.6 227.0 542.8 864.7 1133.0 1534.1 1856.0 2153.2 2044.0 2206.5 1675.1 1554.7 1687.7 1398.1 1420.0
0.0 0.0 0.0 0.0 88.6 292.1 408.6 410.1 655.7 470.6 677.7 594.7 347.5 80.7 17.4 11.6 14.1 22.9 108.3 423.1 626.9 940.7 1262.6 1676.1 2089.0 1984.8 2083.8 1560.4 1863.8 1955.5 1465.5 1340.9
0.0 0.0 0.0 0.0 27.4 343.2 385.2 478.4 440.3 622.2 609.7 546.6 523.3 255.7 55.4 8.6 8.7 17.2 53.4 280.7 473.5 783.5 1174.8 1536.5 2028.4 2300.8 2195.8 1536.2 1783.1 1845.6 1531.1 1429.4
0.0 0.0 0.0 0.0 0.0 68.7 239.6 421.0 245.0 434.4 669.2 393.1 387.2 303.8 78.1 23.4 8.4 13.0 45.5 151.0 351.0 589.8 970.5 1374.5 1772.8 2264.8 2464.7 1896.7 2031.9 1797.8 1601.9 1588.1
0.0 0.0 0.0 0.0 0.0 0.0 76.7 308.3 308.3 102.4 276.5 402.9 313.7 365.4 107.2 26.2 7.9 8.3 32.0 97.7 292.1 492.3 830.3 1372.8 1881.3 2319.1 2442.2 2317.0 2121.4 1871.9 2061.9 2113.6
0.0 0.0 0.0 0.0 0.0 0.0 0.0 62.8 162.7 74.6 139.3 336.3 226.2 366.3 141.0 20.4 6.5 5.0 21.4 49.3 137.5 418.2 772.7 1116.6 1519.0 2001.9 2316.7 2525.2 2677.9 2358.8 2573.7 2052.6
0.0 0.0 0.0 0.0 0.0 0.0 0.0 0.0 30.6 77.6 69.3 192.7 98.3 186.9 74.7 10.4 1.7 2.5 13.3 42.4 91.7 303.5 565.3 913.6 1437.0 1790.1 2032.3 2504.7 2775.7 2578.7 2205.4 2489.1
0.0 0.0 0.0 0.0 0.0 0.0 0.0 0.0 2.6 98.0 157.2 43.3 1.1 77.2 4.1 31.7 5.6 0.3 10.4 30.3 77.7 270.8 438.0 669.8 971.3 1455.1 2041.3 2519.0 2858.3 2959.4 2499.4 2326.2
0.0 0.0 0.0 0.0 0.0 0.0 0.0 0.0 4.7 35.2 205.7 83.7 27.7 137.0 71.2 106.2 8.8 0.9 4.5 19.9 52.5 176.6 370.9 459.8 836.0 1294.7 1575.5 1868.9 2313.0 2808.8 3085.0 2071.6
0.0 0.0 0.0 0.0 0.0 0.0 0.0 0.0 0.0 0.0 6.8 45.2 8.8 176.5 241.3 337.2 111.8 4.6 4.5 17.0 37.9 72.6 182.8 332.4 601.0 910.2 1218.5 1895.3 2457.5 2776.2 3204.4 2458.6
0.0 0.0 0.0 0.0 0.0 0.0 0.0 0.0 0.0 0.0 0.0 39.3 17.3 13.1 210.7 174.1 329.3 190.1 34.7 15.1 30.3 51.2 70.3 155.5 388.6 709.1 920.7 1330.0 2106.1 2722.6 3043.8 2782.1
0.0 0.0 0.0 0.0 0.0 0.0 0.0 0.0 0.0 0.0 0.0 52.9 155.7 7.7 22.1 336.0 731.0 739.8 360.5 45.9 22.2 39.0 65.0 93.6 223.4 580.5 818.6 1240.8 1885.4 2406.5 2090.9 2586.2
0.0 0.0 0.0 0.0 0.0 0.0 0.0 0.0 0.0 0.0 0.0 0.0 209.9 279.5 45.5 149.7 750.6 745.5 519.4 140.3 23.1 30.4 45.7 70.6 106.1 277.4 465.5 685.0 1206.7 1797.6 1809.9 2354.5
0.0 0.0 0.0 0.0 0.0 0.0 0.0 0.0 0.0 0.0 0.0 0.0 123.3 411.9 372.6 251.8 324.7 638.0 454.6 243.1 32.4 25.9 33.0 48.8 71.9 125.0 234.5 472.4 733.4 1094.2 1885.4 2695.9
0.0 0.0 0.0 0.0 0.0 0.0 0.0 0.0 0.0 0.0 0.0 0.0 4.5 238.3 186.4 381.7 217.6 290.8 375.5 311.0 104.5 34.9 33.6 43.6 61.5 84.0 118.3 220.6 366.3 821.5 1422.1 2217.1
0.0 0.0 0.0 0.0 0.0 0.0 0.0 0.0 0.0 0.0 0.0 0.0 0.0 0.3 1.4 18.9 120.9 92.3 282.7 574.6 350.8 157.6 51.3 45.5 53.0 70.7 89.9 110.2 172.4 399.8 610.5 1091.7
0.0 0.0 0.0 0.0 0.0 0.0 0.0 0.0 0.0 0.0 0.0 0.0 0.0 0.0 0.0 5.3 44.0 434.6 339.4 579.0 761.7 387.8 123.8 69.2 50.9 63.0 77.2 91.5 110.2 173.3 443.8 1012.3
0.0 0.0 0.0 0.0 0.0 0.0 0.0 0.0 0.0 0.0 0.0 0.0 0.0 0.0 8.1 125.4 255.0 136.1 584.2 564.8 769.7 534.6 346.5 127.1 62.1 56.7 67.2 81.3 95.4 106.4 210.3 563.0
